Numix-Light/16x16/status/gpm-phone-080.svg

<?xml version="1.0" encoding="UTF-8" standalone="no"?>
<svg
   xmlns:dc="http://purl.org/dc/elements/1.1/"
   xmlns:cc="http://creativecommons.org/ns#"
   xmlns:rdf="http://www.w3.org/1999/02/22-rdf-syntax-ns#"
   xmlns:svg="http://www.w3.org/2000/svg"
   xmlns="http://www.w3.org/2000/svg"
   xmlns:sodipodi="http://sodipodi.sourceforge.net/DTD/sodipodi-0.dtd"
   xmlns:inkscape="http://www.inkscape.org/namespaces/inkscape"
   width="16"
   height="16"
   viewBox="0 0 16 16"
   id="svg3033"
   version="1.1"
   inkscape:version="0.48.5 r10040"
   sodipodi:docname="gpm-phone-080.svg">
  <metadata
     id="metadata3059">
    <rdf:RDF>
      <cc:Work
         rdf:about="">
        <dc:format>image/svg+xml</dc:format>
        <dc:type
           rdf:resource="http://purl.org/dc/dcmitype/StillImage" />
      </cc:Work>
    </rdf:RDF>
  </metadata>
  <defs
     id="defs3057" />
  <sodipodi:namedview
     pagecolor="#ffffff"
     bordercolor="#666666"
     borderopacity="1"
     objecttolerance="10"
     gridtolerance="10"
     guidetolerance="10"
     inkscape:pageopacity="0"
     inkscape:pageshadow="2"
     inkscape:window-width="1280"
     inkscape:window-height="998"
     id="namedview3055"
     showgrid="false"
     inkscape:zoom="14.75"
     inkscape:cx="-4.9459634"
     inkscape:cy="11.456358"
     inkscape:window-x="0"
     inkscape:window-y="0"
     inkscape:window-maximized="1"
     inkscape:current-layer="svg3033" />
  <path
     inkscape:connector-curvature="0"
     id="path3039"
     d="m 2.183594,2.910156 c -0.40625,0 -0.730469,0.324219 -0.730469,0.726563 l 0,9.453125 c 0,0.402344 0.324219,0.726562 0.730469,0.726562 l 4.363281,0 c 0.402344,0 0.726563,-0.324218 0.726563,-0.726562 l 0,-9.453125 c 0,-0.402344 -0.324219,-0.726563 -0.726563,-0.726563 z m 0.363281,0.726563 3.636719,0 c 0.199218,0 0.363281,0.160156 0.363281,0.363281 l 0,5.089844 c 0,0.203125 -0.164063,0.363281 -0.363281,0.363281 l -3.636719,0 c -0.203125,0 -0.363281,-0.160156 -0.363281,-0.363281 L 2.183594,4 c 0,-0.203125 0.160156,-0.363281 0.363281,-0.363281 z m 0,7.273437 c 0.199219,0 0.363281,0.160156 0.363281,0.363282 0,0.199218 -0.164062,0.363281 -0.363281,0.363281 -0.203125,0 -0.363281,-0.164063 -0.363281,-0.363281 0,-0.203126 0.160156,-0.363282 0.363281,-0.363282 z m 1.453125,0 c 0.203125,0 0.363281,0.160156 0.363281,0.363282 0,-0.203126 0.164063,-0.363282 0.363281,-0.363282 0.203126,0 0.363282,0.160156 0.363282,0.363282 0,0.199218 -0.160156,0.363281 -0.363282,0.363281 -0.199218,0 -0.363281,-0.164063 -0.363281,-0.363281 0,0.199218 -0.160156,0.363281 -0.363281,0.363281 -0.203125,0 -0.363281,-0.164063 -0.363281,-0.363281 0,-0.203126 0.160156,-0.363282 0.363281,-0.363282 z m 2.183594,0 c 0.199218,0 0.363281,0.160156 0.363281,0.363282 0,0.199218 -0.164063,0.363281 -0.363281,0.363281 -0.203125,0 -0.367188,-0.164063 -0.367188,-0.363281 0,-0.203126 0.164063,-0.363282 0.367188,-0.363282 z m -3.636719,1.453125 c 0.199219,0 0.363281,0.164063 0.363281,0.363281 0,0.203126 -0.164062,0.363282 -0.363281,0.363282 -0.203125,0 -0.363281,-0.160156 -0.363281,-0.363282 0,-0.199218 0.160156,-0.363281 0.363281,-0.363281 z m 1.453125,0 c 0.203125,0 0.363281,0.164063 0.363281,0.363281 0,-0.199218 0.164063,-0.363281 0.363281,-0.363281 0.203126,0 0.363282,0.164063 0.363282,0.363281 0,0.203126 -0.160156,0.363282 -0.363282,0.363282 -0.199218,0 -0.363281,-0.160156 -0.363281,-0.363282 0,0.203126 -0.160156,0.363282 -0.363281,0.363282 -0.203125,0 -0.363281,-0.160156 -0.363281,-0.363282 0,-0.199218 0.160156,-0.363281 0.363281,-0.363281 z m 2.183594,0 c 0.199218,0 0.363281,0.164063 0.363281,0.363281 0,0.203126 -0.164063,0.363282 -0.363281,0.363282 -0.203125,0 -0.367188,-0.160156 -0.367188,-0.363282 0,-0.199218 0.164063,-0.363281 0.367188,-0.363281 z"
     style="fill:#353535;fill-rule:evenodd;fill-opacity:1" />
  <path
     style="font-size:medium;font-style:normal;font-variant:normal;font-weight:normal;font-stretch:normal;text-indent:0;text-align:start;text-decoration:none;line-height:normal;letter-spacing:normal;word-spacing:normal;text-transform:none;direction:ltr;block-progression:tb;writing-mode:lr-tb;text-anchor:start;baseline-shift:baseline;color:#000000;fill:#353535;fill-opacity:1;stroke:none;stroke-width:0.72727001000000002;marker:none;visibility:visible;display:inline;overflow:visible;enable-background:accumulate;font-family:Sans;-inkscape-font-specification:Sans"
     d="m 11.4375,1.46875 c -0.592478,-0.068329 -1.208646,0.3072421 -1.25,0.96875 l 0,0.03125 c -0.0024,0.1474546 3.65e-4,0.2915147 0,0.4375 l -0.375,0 C 9.2148071,2.90625 8.71875,3.4023067 8.71875,4 l 0,8.71875 c 0,0.597694 0.4960565,1.09375 1.09375,1.09375 l 3.625,0 c 0.599721,0 1.125,-0.496057 1.125,-1.09375 L 14.5625,4 c 0,-0.5976929 -0.52528,-1.09375 -1.125,-1.09375 l -0.34375,0 c 0.0032,-0.098653 0.0037,-0.192352 0,-0.3125 -0.007,-0.2282812 -0.05785,-0.5076001 -0.25,-0.75 -0.210407,-0.2696766 -0.529055,-0.3509522 -0.78125,-0.375 -0.239585,-0.022845 -0.439717,0.00309 -0.59375,0 -0.0081,-1.629e-4 -0.02346,3.114e-4 -0.03125,0 z m -0.0625,0.71875 0.03125,0 c 0.234926,0.0094 0.446532,-0.014038 0.59375,0 0.147218,0.014038 0.214314,0.039209 0.28125,0.125 0.06176,0.077912 0.08898,0.156017 0.09375,0.3125 0.0023,0.074123 0.0032,0.1877892 0,0.28125 l -1.46875,0 c 3.36e-4,-0.1338025 -0.002,-0.273714 0,-0.40625 0.0126,-0.2016048 0.257871,-0.3429155 0.46875,-0.3125 z m -1.5625,1.4375 3.625,0 c 0.212776,0 0.375,0.1680079 0.375,0.375 l 0,8.71875 c 0,0.206993 -0.162225,0.375 -0.375,0.375 l -3.625,0 c -0.2069915,0 -0.34375,-0.168008 -0.34375,-0.375 L 9.46875,4 c 0,-0.2069917 0.1367579,-0.375 0.34375,-0.375 z"
     id="path3051"
     inkscape:connector-curvature="0" />
  <path
     style="fill:#353535;fill-rule:evenodd;fill-opacity:1"
     d="M 10.546875 5.816406 L 12.726562 5.816406 C 12.929688 5.816406 13.089844 5.980469 13.089844 6.183594 L 13.089844 12 C 13.089844 12.199219 12.929688 12.363281 12.726562 12.363281 L 10.546875 12.363281 C 10.34375 12.363281 10.183594 12.199219 10.183594 12 L 10.183594 6.183594 C 10.183594 5.980469 10.34375 5.816406 10.546875 5.816406 Z "
     id="path3053" />
</svg>

<svg width="16" xmlns="http://www.w3.org/2000/svg" height="16" viewBox="0 0 16 16" xmlns:xlink="http://www.w3.org/1999/xlink">
<g style="fill-rule:evenodd">
<path style="fill:#000;fill-opacity:.302" d="M 2.183594 3.636719 C 1.777344 3.636719 1.453125 3.960938 1.453125 4.363281 L 1.453125 13.816406 C 1.453125 14.222656 1.777344 14.546875 2.183594 14.546875 L 6.546875 14.546875 C 6.949219 14.546875 7.273438 14.222656 7.273438 13.816406 L 7.273438 4.363281 C 7.273438 3.960938 6.949219 3.636719 6.546875 3.636719 Z M 2.546875 4.363281 L 6.183594 4.363281 C 6.382812 4.363281 6.546875 4.527344 6.546875 4.726562 L 6.546875 9.816406 C 6.546875 10.019531 6.382812 10.183594 6.183594 10.183594 L 2.546875 10.183594 C 2.34375 10.183594 2.183594 10.019531 2.183594 9.816406 L 2.183594 4.726562 C 2.183594 4.527344 2.34375 4.363281 2.546875 4.363281 Z M 2.546875 11.636719 C 2.746094 11.636719 2.910156 11.796875 2.910156 12 C 2.910156 12.203125 2.746094 12.363281 2.546875 12.363281 C 2.34375 12.363281 2.183594 12.203125 2.183594 12 C 2.183594 11.796875 2.34375 11.636719 2.546875 11.636719 Z M 4 11.636719 C 4.203125 11.636719 4.363281 11.796875 4.363281 12 C 4.363281 11.796875 4.527344 11.636719 4.726562 11.636719 C 4.929688 11.636719 5.089844 11.796875 5.089844 12 C 5.089844 12.203125 4.929688 12.363281 4.726562 12.363281 C 4.527344 12.363281 4.363281 12.203125 4.363281 12 C 4.363281 12.203125 4.203125 12.363281 4 12.363281 C 3.796875 12.363281 3.636719 12.203125 3.636719 12 C 3.636719 11.796875 3.796875 11.636719 4 11.636719 Z M 6.183594 11.636719 C 6.382812 11.636719 6.546875 11.796875 6.546875 12 C 6.546875 12.203125 6.382812 12.363281 6.183594 12.363281 C 5.980469 12.363281 5.816406 12.203125 5.816406 12 C 5.816406 11.796875 5.980469 11.636719 6.183594 11.636719 Z M 2.546875 13.089844 C 2.746094 13.089844 2.910156 13.253906 2.910156 13.453125 C 2.910156 13.65625 2.746094 13.816406 2.546875 13.816406 C 2.34375 13.816406 2.183594 13.65625 2.183594 13.453125 C 2.183594 13.253906 2.34375 13.089844 2.546875 13.089844 Z M 4 13.089844 C 4.203125 13.089844 4.363281 13.253906 4.363281 13.453125 C 4.363281 13.253906 4.527344 13.089844 4.726562 13.089844 C 4.929688 13.089844 5.089844 13.253906 5.089844 13.453125 C 5.089844 13.65625 4.929688 13.816406 4.726562 13.816406 C 4.527344 13.816406 4.363281 13.65625 4.363281 13.453125 C 4.363281 13.65625 4.203125 13.816406 4 13.816406 C 3.796875 13.816406 3.636719 13.65625 3.636719 13.453125 C 3.636719 13.253906 3.796875 13.089844 4 13.089844 Z M 6.183594 13.089844 C 6.382812 13.089844 6.546875 13.253906 6.546875 13.453125 C 6.546875 13.65625 6.382812 13.816406 6.183594 13.816406 C 5.980469 13.816406 5.816406 13.65625 5.816406 13.453125 C 5.816406 13.253906 5.980469 13.089844 6.183594 13.089844 Z M 10.546875 11.636719 C 10.34375 11.636719 10.183594 11.796875 10.183594 12 L 10.183594 12.726562 C 10.183594 12.929688 10.34375 13.089844 10.546875 13.089844 L 12.726562 13.089844 C 12.929688 13.089844 13.089844 12.929688 13.089844 12.726562 L 13.089844 12 C 13.089844 11.796875 12.929688 11.636719 12.726562 11.636719 Z "/>
<path style="fill:#353535" d="M 2.183594 2.910156 C 1.777344 2.910156 1.453125 3.234375 1.453125 3.636719 L 1.453125 13.089844 C 1.453125 13.492188 1.777344 13.816406 2.183594 13.816406 L 6.546875 13.816406 C 6.949219 13.816406 7.273438 13.492188 7.273438 13.089844 L 7.273438 3.636719 C 7.273438 3.234375 6.949219 2.910156 6.546875 2.910156 Z M 2.546875 3.636719 L 6.183594 3.636719 C 6.382812 3.636719 6.546875 3.796875 6.546875 4 L 6.546875 9.089844 C 6.546875 9.292969 6.382812 9.453125 6.183594 9.453125 L 2.546875 9.453125 C 2.34375 9.453125 2.183594 9.292969 2.183594 9.089844 L 2.183594 4 C 2.183594 3.796875 2.34375 3.636719 2.546875 3.636719 Z M 2.546875 10.910156 C 2.746094 10.910156 2.910156 11.070312 2.910156 11.273438 C 2.910156 11.472656 2.746094 11.636719 2.546875 11.636719 C 2.34375 11.636719 2.183594 11.472656 2.183594 11.273438 C 2.183594 11.070312 2.34375 10.910156 2.546875 10.910156 Z M 4 10.910156 C 4.203125 10.910156 4.363281 11.070312 4.363281 11.273438 C 4.363281 11.070312 4.527344 10.910156 4.726562 10.910156 C 4.929688 10.910156 5.089844 11.070312 5.089844 11.273438 C 5.089844 11.472656 4.929688 11.636719 4.726562 11.636719 C 4.527344 11.636719 4.363281 11.472656 4.363281 11.273438 C 4.363281 11.472656 4.203125 11.636719 4 11.636719 C 3.796875 11.636719 3.636719 11.472656 3.636719 11.273438 C 3.636719 11.070312 3.796875 10.910156 4 10.910156 Z M 6.183594 10.910156 C 6.382812 10.910156 6.546875 11.070312 6.546875 11.273438 C 6.546875 11.472656 6.382812 11.636719 6.183594 11.636719 C 5.980469 11.636719 5.816406 11.472656 5.816406 11.273438 C 5.816406 11.070312 5.980469 10.910156 6.183594 10.910156 Z M 2.546875 12.363281 C 2.746094 12.363281 2.910156 12.527344 2.910156 12.726562 C 2.910156 12.929688 2.746094 13.089844 2.546875 13.089844 C 2.34375 13.089844 2.183594 12.929688 2.183594 12.726562 C 2.183594 12.527344 2.34375 12.363281 2.546875 12.363281 Z M 4 12.363281 C 4.203125 12.363281 4.363281 12.527344 4.363281 12.726562 C 4.363281 12.527344 4.527344 12.363281 4.726562 12.363281 C 4.929688 12.363281 5.089844 12.527344 5.089844 12.726562 C 5.089844 12.929688 4.929688 13.089844 4.726562 13.089844 C 4.527344 13.089844 4.363281 12.929688 4.363281 12.726562 C 4.363281 12.929688 4.203125 13.089844 4 13.089844 C 3.796875 13.089844 3.636719 12.929688 3.636719 12.726562 C 3.636719 12.527344 3.796875 12.363281 4 12.363281 Z M 6.183594 12.363281 C 6.382812 12.363281 6.546875 12.527344 6.546875 12.726562 C 6.546875 12.929688 6.382812 13.089844 6.183594 13.089844 C 5.980469 13.089844 5.816406 12.929688 5.816406 12.726562 C 5.816406 12.527344 5.980469 12.363281 6.183594 12.363281 Z "/>
</g>
<g style="stroke-linecap:round;fill:none">
<g style="stroke-opacity:.302">
<path style="stroke:#fff;stroke-width:.5" d="M 3.249512 12.498535 L 3.249512 5.5 C 3.249512 5.360352 3.362305 5.247559 3.501953 5.247559 L 8.502441 5.247559 C 8.636719 5.247559 8.749512 5.360352 8.749512 5.5 L 8.749512 12.498535 C 8.749512 12.638184 8.636719 12.750977 8.502441 12.750977 L 3.501953 12.750977 C 3.362305 12.750977 3.249512 12.638184 3.249512 12.498535 Z " transform="scale(.72727)"/>
<path style="stroke:#000" d="M 12.498535 18.498047 L 12.498535 6.499023 C 12.498535 5.945801 12.944336 5.5 13.497559 5.5 L 18.498047 5.5 C 19.056641 5.5 19.502441 5.945801 19.502441 6.499023 L 19.502441 18.498047 C 19.502441 19.056641 19.056641 19.502441 18.498047 19.502441 L 13.497559 19.502441 C 12.944336 19.502441 12.498535 19.056641 12.498535 18.498047 Z M 14.501953 5.381836 C 14.501953 5.054199 14.501953 4.726562 14.507324 4.398926 C 14.544922 3.802734 15.157227 3.421387 15.71582 3.501953 C 16.25293 3.523438 16.89209 3.378418 17.273438 3.861816 C 17.622559 4.302246 17.461426 4.882324 17.499023 5.40332 " transform="scale(.72727)"/>
<path style="stroke:#fff;stroke-width:.5" d="M -17.499023 13.250488 L -5.5 13.250488 C -5.360352 13.250488 -5.247559 13.363281 -5.247559 13.497559 L -5.247559 18.498047 C -5.247559 18.637695 -5.360352 18.750488 -5.5 18.750488 L -17.499023 18.750488 C -17.638672 18.750488 -17.751465 18.637695 -17.751465 18.498047 L -17.751465 13.497559 C -17.751465 13.363281 -17.638672 13.250488 -17.499023 13.250488 Z " transform="matrix(0 -.72727 .72727 0 0 0)"/>
</g>
<path style="stroke:#353535" d="M 12.498535 17.499023 L 12.498535 5.5 C 12.498535 4.946777 12.944336 4.500977 13.497559 4.500977 L 18.498047 4.500977 C 19.056641 4.500977 19.502441 4.946777 19.502441 5.5 L 19.502441 17.499023 C 19.502441 18.052246 19.056641 18.498047 18.498047 18.498047 L 13.497559 18.498047 C 12.944336 18.498047 12.498535 18.052246 12.498535 17.499023 Z M 14.501953 4.382812 C 14.501953 4.055176 14.501953 3.727539 14.507324 3.399902 C 14.544922 2.79834 15.157227 2.422363 15.71582 2.50293 C 16.25293 2.524414 16.89209 2.374023 17.273438 2.862793 C 17.622559 3.303223 17.461426 3.883301 17.499023 4.398926 " transform="scale(.72727)"/>
</g>
<path style="fill:#353535;fill-rule:evenodd" d="M 10.546875 5.816406 L 12.726562 5.816406 C 12.929688 5.816406 13.089844 5.980469 13.089844 6.183594 L 13.089844 12 C 13.089844 12.199219 12.929688 12.363281 12.726562 12.363281 L 10.546875 12.363281 C 10.34375 12.363281 10.183594 12.199219 10.183594 12 L 10.183594 6.183594 C 10.183594 5.980469 10.34375 5.816406 10.546875 5.816406 Z "/>
</svg>
